; generated by SuperSlicer 2.4 on 2023-10-06 at 16:45:21 UTC

; 

; external perimeters extrusion width = 0.42mm
; perimeters extrusion width = 0.46mm
; infill extrusion width = 0.44mm
; solid infill extrusion width = 0.46mm
; top infill extrusion width = 0.44mm
; first layer extrusion width = 0.60mm

; external perimeters extrusion width = 0.42mm
; perimeters extrusion width = 0.46mm
; infill extrusion width = 0.44mm
; solid infill extrusion width = 0.46mm
; top infill extrusion width = 0.44mm
; first layer extrusion width = 0.60mm

; external perimeters extrusion width = 0.42mm
; perimeters extrusion width = 0.46mm
; infill extrusion width = 0.44mm
; solid infill extrusion width = 0.46mm
; top infill extrusion width = 0.44mm
; first layer extrusion width = 0.60mm

; object:{"name":"Bunnings-Shelf-Hook","id":"Bunnings-Shelf-Hook.stl id:0 copy 0","object_center":[85.796460,91.586987,0.000000],"boundingbox_center":[85.796460,91.586987,16.790844],"boundingbox_size":[30.000000,30.000000,33.581688]}
; object:{"name":"Bunnings-Shelf-Hook","id":"Bunnings-Shelf-Hook.stl id:1 copy 0","object_center":[160.891986,85.257930,0.000000],"boundingbox_center":[160.891986,85.257930,16.790844],"boundingbox_size":[30.000000,30.000000,33.581688]}
; object:{"name":"Bunnings-Shelf-Hook","id":"Bunnings-Shelf-Hook.stl id:2 copy 0","object_center":[129.250000,128.750000,0.000000],"boundingbox_center":[129.250000,128.750000,16.790844],"boundingbox_size":[30.000000,30.000000,33.581688]}
; plater:{"center":[123.344223,107.003965,0.000000],"boundingbox_center":[123.344223,107.003965,16.790844],"boundingbox_size":[105.095527,73.492070,33.581688]}

;TYPE:Custom
G28 ; home all axes


; Pre-Processed for Cancel-Object support by preprocess_cancellation v0.2.0
; 3 known objects
EXCLUDE_OBJECT_DEFINE NAME=Bunnings_Shelf_Hook_stl_id_0_copy_0 CENTER=85.866,93.452 POLYGON=[[71.017,76.808],[71.017,106.366],[100.586,106.366],[100.586,76.808]]
EXCLUDE_OBJECT_DEFINE NAME=Bunnings_Shelf_Hook_stl_id_2_copy_0 CENTER=129.297,130.582 POLYGON=[[114.471,113.971],[114.471,143.529],[144.04,143.529],[144.04,113.971]]
EXCLUDE_OBJECT_DEFINE NAME=Bunnings_Shelf_Hook_stl_id_1_copy_0 CENTER=160.940,87.128 POLYGON=[[146.113,70.479],[146.113,100.037],[175.682,100.037],[175.682,70.479]]
G1 Z5 F5000 ; lift nozzle
M107
G21 ; set units to millimeters
G90 ; use absolute coordinates
M82 ; use absolute distances for extrusion
G92 E0
; Filament gcode
;_TOOLCHANGE 0
M104 S200 ; set temperature
M109 S200 ; set temperature and wait for it to be reached
M190 S50 ; set bed temperature and wait for it to be reached
M107
;LAYER_CHANGE
;Z:0.3
;HEIGHT:0.3
TIMELAPSE_TAKE_FRAME
G1 Z0.3 F7800
G1 E-0.4 F240
G1 X67.859 Y73.187 F7800
G1 E0 F240
;TYPE:Skirt
;WIDTH:0.44
G1 F1800
G1 X66.964 Y74.126 E0.0608
G1 X66.009 Y75.441 E0.13689
G1 X65.248 Y76.864 E0.2125
G1 X64.722 Y78.281 E0.28333
G1 X64.385 Y79.755 E0.35415
G1 X64.244 Y81.26 E0.42498
G1 X64.244 Y101.914 E1.3926
G1 X64.402 Y103.52 E1.46821
G1 X64.962 Y105.61 E1.56958
G1 X65.58 Y106.99 E1.64041
G1 X66.432 Y108.36 E1.71602
G1 X67.396 Y109.525 E1.78684
G1 X68.234 Y110.334 E1.84141
G1 X111.687 Y147.497 E4.52015
G1 X112.56 Y148.174 E4.57188
G1 X113.656 Y148.869 E4.63268
G1 X114.527 Y149.298 E4.67817
G1 X115.944 Y149.824 E4.749
G1 X117.418 Y150.161 E4.81982
G1 X118.923 Y150.303 E4.89065
G1 X139.577 Y150.303 E5.85828
G1 X141.183 Y150.145 E5.93389
G1 X143.273 Y149.585 E6.03526
G1 X144.653 Y148.967 E6.10608
G1 X146.023 Y148.114 E6.18169
G1 X147.188 Y147.15 E6.25252
G1 X148.524 Y145.655 E6.34647
G1 X180.166 Y102.163 E8.86623
G1 X181.165 Y100.563 E8.95458
G1 X181.69 Y99.377 E9.01538
G1 X181.966 Y98.564 E9.0556
G1 X182.303 Y97.09 E9.12643
G1 X182.445 Y95.588 E9.19709
G1 X182.455 Y75.261 E10.1494
G1 X182.287 Y73.325 E10.24047
G1 X182.002 Y72.059 E10.30127
G1 X181.44 Y70.535 E10.37736
G1 X180.733 Y69.198 E10.44819
G1 X180.256 Y68.485 E10.48841
G1 X179.442 Y67.474 E10.54921
G1 X178.184 Y66.292 E10.63009
G1 X176.385 Y65.089 E10.73146
G1 X175.011 Y64.459 E10.80228
G1 X173.467 Y63.991 E10.87789
G1 X171.862 Y63.737 E10.95398
G1 X150.014 Y63.728 E11.97758
G1 X74.918 Y70.057 E15.50822
G1 X73.222 Y70.32 E15.58864
G1 X71.773 Y70.752 E15.65947
G1 X70.394 Y71.37 E15.73029
G1 X69.023 Y72.223 E15.8059
G1 X67.905 Y73.148 E15.87392
G1 X68.143 Y73.437 F7800
G1 F1800
G1 X68.124 Y73.452 E15.87506
G1 X67.254 Y74.365 E15.93414
G1 X66.321 Y75.649 E16.0085
G1 X65.595 Y77.008 E16.08066
G1 X65.085 Y78.378 E16.14918
G1 X64.758 Y79.804 E16.21771
G1 X64.619 Y81.26 E16.28623
G1 X64.619 Y101.914 E17.25386
G1 X64.77 Y103.447 E17.32602
G1 X65.318 Y105.489 E17.42509
G1 X65.917 Y106.824 E17.49361
G1 X66.73 Y108.132 E17.56577
G1 X67.662 Y109.259 E17.6343
G1 X68.478 Y110.049 E17.6875
G1 X111.931 Y147.212 E20.36624
G1 X112.768 Y147.862 E20.41588
G1 X113.833 Y148.537 E20.47496
G1 X114.671 Y148.951 E20.51872
G1 X116.041 Y149.462 E20.58725
G1 X117.467 Y149.789 E20.65577
G1 X118.923 Y149.927 E20.7243
G1 X139.577 Y149.927 E21.69192
G1 X141.11 Y149.776 E21.76408
G1 X143.152 Y149.229 E21.86315
G1 X144.487 Y148.63 E21.93168
G1 X145.795 Y147.816 E22.00383
G1 X146.922 Y146.885 E22.07236
G1 X148.22 Y145.434 E22.16356
G1 X179.862 Y101.942 E24.68333
G1 X180.834 Y100.386 E24.76925
G1 X181.604 Y98.467 E24.86615
G1 X181.931 Y97.041 E24.93467
G1 X182.069 Y95.588 E25.00305
G1 X182.08 Y75.261 E25.95535
G1 X181.918 Y73.398 E26.04296
G1 X181.643 Y72.168 E26.10204
G1 X181.093 Y70.679 E26.1764
G1 X180.408 Y69.386 E26.24493
G1 X179.167 Y67.731 E26.34183
G1 X177.956 Y66.59 E26.41983
G1 X176.197 Y65.415 E26.5189
G1 X174.867 Y64.806 E26.58742
G1 X173.393 Y64.359 E26.65958
G1 X171.826 Y64.111 E26.73395
G1 X150.045 Y64.103 E27.75434
G1 X74.95 Y70.432 E31.28499
G1 X73.295 Y70.688 E31.36343
G1 X71.894 Y71.108 E31.43195
G1 X70.56 Y71.707 E31.50048
G1 X69.252 Y72.521 E31.57264
G1 X68.189 Y73.399 E31.6372
G92 E0
G1 E-0.4 F240
; printing object Bunnings-Shelf-Hook.stl id:0 copy 0
EXCLUDE_OBJECT_START NAME=Bunnings_Shelf_Hook_stl_id_0_copy_0
G1 X73.412 Y78.868 F7800
G1 E0 F240
;TYPE:Internal perimeter
;WIDTH:0.604
G1 F1800
G1 X73.806 Y78.567 E0.03336
G1 X73.968 Y78.466 E0.04625
G1 X74.413 Y78.246 E0.07961
G1 X74.861 Y78.094 E0.11144
G1 X75.347 Y77.998 E0.1448
G1 X75.537 Y77.979 E0.15768
G1 X96.056 Y77.979 E1.53866
G1 X96.246 Y77.998 E1.55154
G1 X96.755 Y78.099 E1.58643
G1 X96.938 Y78.154 E1.59932
G1 X97.396 Y78.344 E1.63267
G1 X97.805 Y78.581 E1.66451
G1 X98.199 Y78.882 E1.69787
G1 X98.355 Y79.029 E1.71228
G1 X98.501 Y79.185 E1.72669
G1 X98.803 Y79.578 E1.76005
G1 X99.039 Y79.988 E1.79188
G1 X99.229 Y80.446 E1.82524
G1 X99.285 Y80.629 E1.83813
G1 X99.381 Y81.115 E1.87149
G1 X99.415 Y81.632 E1.90634
G1 X99.405 Y101.823 E3.26531
G1 X99.343 Y102.292 E3.29716
G1 X99.22 Y102.749 E3.329
G1 X99.031 Y103.207 E3.36235
G1 X98.94 Y103.376 E3.37524
G1 X98.652 Y103.807 E3.41013
G1 X98.531 Y103.955 E3.42301
G1 X98.181 Y104.305 E3.45637
G1 X97.787 Y104.607 E3.48973
G1 X97.625 Y104.708 E3.50262
G1 X97.18 Y104.928 E3.53598
G1 X96.732 Y105.08 E3.56781
G1 X96.246 Y105.176 E3.60117
G1 X96.056 Y105.195 E3.61406
G1 X75.56 Y105.195 E4.9935
G1 X75.091 Y105.133 E5.02533
G1 X74.634 Y105.011 E5.05717
G1 X74.176 Y104.821 E5.09053
G1 X74.007 Y104.731 E5.10341
G1 X73.576 Y104.443 E5.1383
G1 X73.428 Y104.322 E5.15119
G1 X73.078 Y103.971 E5.18455
G1 X72.776 Y103.578 E5.21791
G1 X72.675 Y103.415 E5.23079
G1 X72.456 Y102.971 E5.26415
G1 X72.304 Y102.523 E5.29598
G1 X72.207 Y102.037 E5.32934
G1 X72.188 Y101.846 E5.34223
G1 X72.188 Y81.35 E6.72168
G1 X72.25 Y80.882 E6.75351
G1 X72.373 Y80.425 E6.78534
G1 X72.562 Y79.967 E6.8187
G1 X72.652 Y79.798 E6.83159
G1 X72.94 Y79.367 E6.86647
G1 X73.062 Y79.219 E6.87936
G1 X73.37 Y78.911 E6.90868
G1 X73.056 Y78.462 F7800
G1 F1800
G1 X73.498 Y78.123 E6.94621
G1 X73.706 Y77.993 E6.96266
G1 X74.206 Y77.747 E7.00018
G1 X74.721 Y77.572 E7.03678
G1 X75.267 Y77.463 E7.0743
G1 X75.511 Y77.439 E7.09076
G1 X96.082 Y77.439 E8.4753
G1 X96.325 Y77.463 E8.49175
G1 X96.886 Y77.575 E8.53021
G1 X97.12 Y77.646 E8.54666
G1 X97.635 Y77.859 E8.58419
G1 X98.106 Y78.131 E8.62078
G1 X98.548 Y78.47 E8.6583
G1 X98.737 Y78.647 E8.67569
G1 X98.913 Y78.835 E8.69307
G1 X99.253 Y79.278 E8.7306
G1 X99.524 Y79.749 E8.76719
G1 X99.738 Y80.264 E8.80471
G1 X99.809 Y80.498 E8.82117
G1 X99.917 Y81.044 E8.85869
G1 X99.955 Y81.614 E8.89713
G1 X99.944 Y101.859 E10.25966
G1 X99.873 Y102.398 E10.29627
G1 X99.732 Y102.923 E10.33286
G1 X99.519 Y103.438 E10.37039
G1 X99.404 Y103.654 E10.38684
G1 X99.086 Y104.129 E10.4253
G1 X98.931 Y104.318 E10.44175
G1 X98.537 Y104.712 E10.47927
G1 X98.095 Y105.051 E10.5168
G1 X97.887 Y105.181 E10.53325
G1 X97.387 Y105.427 E10.57078
G1 X96.872 Y105.602 E10.60737
G1 X96.325 Y105.711 E10.6449
G1 X96.082 Y105.735 E10.66135
G1 X75.525 Y105.735 E12.04496
G1 X74.986 Y105.664 E12.08155
G1 X74.46 Y105.523 E12.11815
G1 X73.945 Y105.31 E12.15567
G1 X73.73 Y105.194 E12.17213
G1 X73.255 Y104.877 E12.21058
G1 X73.066 Y104.722 E12.22704
G1 X72.671 Y104.328 E12.26456
G1 X72.332 Y103.885 E12.30209
G1 X72.203 Y103.678 E12.31854
G1 X71.956 Y103.178 E12.35606
G1 X71.782 Y102.663 E12.39266
G1 X71.673 Y102.116 E12.43018
G1 X71.649 Y101.873 E12.44664
G1 X71.649 Y81.315 E13.83025
G1 X71.72 Y80.776 E13.86684
G1 X71.86 Y80.251 E13.90344
G1 X72.074 Y79.736 E13.94096
G1 X72.189 Y79.52 E13.95741
G1 X72.507 Y79.045 E13.99587
G1 X72.662 Y78.856 E14.01232
G1 X73.013 Y78.504 E14.04581
G1 X72.699 Y78.055 F7800
;TYPE:External perimeter
G1 F1800
G1 X73.191 Y77.678 E14.0875
G1 X73.443 Y77.521 E14.10752
G1 X73.999 Y77.247 E14.14921
G1 X74.581 Y77.05 E14.19056
G1 X75.188 Y76.929 E14.23225
G1 X75.484 Y76.9 E14.25228
G1 X96.109 Y76.9 E15.64039
G1 X96.405 Y76.929 E15.66041
G1 X97.017 Y77.051 E15.70243
G1 X97.302 Y77.137 E15.72246
G1 X97.874 Y77.374 E15.76414
G1 X98.406 Y77.681 E15.8055
G1 X98.898 Y78.058 E15.84719
G1 X99.118 Y78.265 E15.86755
G1 X99.325 Y78.486 E15.8879
G1 X99.702 Y78.977 E15.92959
G1 X100.009 Y79.509 E15.97095
G1 X100.246 Y80.082 E16.01263
G1 X100.333 Y80.366 E16.03266
G1 X100.454 Y80.974 E16.07435
G1 X100.494 Y81.597 E16.11636
G1 X100.484 Y101.894 E17.48246
G1 X100.404 Y102.503 E17.52382
G1 X100.245 Y103.097 E17.56518
G1 X100.007 Y103.669 E17.60686
G1 X99.867 Y103.932 E17.62689
G1 X99.52 Y104.451 E17.66891
G1 X99.332 Y104.681 E17.68894
G1 X98.894 Y105.119 E17.73062
G1 X98.402 Y105.496 E17.77231
G1 X98.15 Y105.653 E17.79234
G1 X97.594 Y105.927 E17.83402
G1 X97.012 Y106.124 E17.87538
G1 X96.405 Y106.245 E17.91707
G1 X96.109 Y106.274 E17.93709
G1 X75.489 Y106.274 E19.32487
G1 X74.88 Y106.194 E19.36622
G1 X74.287 Y106.035 E19.40758
G1 X73.714 Y105.798 E19.44926
G1 X73.452 Y105.658 E19.46929
G1 X72.933 Y105.311 E19.51131
G1 X72.703 Y105.122 E19.53133
G1 X72.265 Y104.684 E19.57302
G1 X71.888 Y104.193 E19.61471
G1 X71.731 Y103.94 E19.63473
G1 X71.457 Y103.385 E19.67642
G1 X71.259 Y102.803 E19.71778
G1 X71.138 Y102.195 E19.75947
G1 X71.109 Y101.899 E19.77949
G1 X71.109 Y81.28 E21.16727
G1 X71.189 Y80.671 E21.20862
G1 X71.348 Y80.077 E21.24998
G1 X71.585 Y79.505 E21.29166
G1 X71.726 Y79.242 E21.31169
G1 X72.073 Y78.723 E21.35371
G1 X72.261 Y78.493 E21.37373
G1 X72.657 Y78.098 E21.41138
;WIPE_START
G1 X73.075 Y78.192 F7800
;WIPE_END
G92 E0
G1 E-0.4 F240
G1 X97.192 Y78.44 F7800
G1 E0 F240
;TYPE:Solid infill
;WIDTH:0.600727
G1 F1800
G1 X98.134 Y79.381 E0.08917
G1 X98.478 Y79.803 E0.12553
G1 X98.683 Y80.158 E0.15298
G1 X98.905 Y80.738 E0.19461
G1 X98.949 Y80.959 E0.20967
G1 X96.424 Y78.435 E0.44863
G1 X96.207 Y78.392 E0.46346
G1 X95.618 Y78.391 E0.50293
G1 X99.021 Y81.795 E0.82515
G1 X99.021 Y82.557 E0.87621
G1 X94.854 Y78.39 E1.27069
G1 X94.09 Y78.39 E1.32182
G1 X99.02 Y83.32 E1.78858
G1 X99.02 Y84.083 E1.83964
G1 X93.326 Y78.389 E2.37867
G1 X92.562 Y78.388 E2.4298
G1 X99.02 Y84.846 E3.04111
G1 X99.019 Y85.608 E3.09216
G1 X91.798 Y78.388 E3.77574
G1 X91.035 Y78.387 E3.82687
G1 X99.019 Y86.371 E4.58271
G1 X99.018 Y87.134 E4.63377
G1 X90.271 Y78.386 E5.46189
G1 X89.507 Y78.385 E5.51302
G1 X99.018 Y87.897 E6.4134
G1 X99.018 Y88.659 E6.46446
G1 X88.743 Y78.385 E7.43712
G1 X87.979 Y78.384 E7.48825
G1 X99.017 Y89.422 E8.53318
G1 X99.017 Y90.185 E8.58424
G1 X87.215 Y78.383 E9.70144
G1 X86.452 Y78.383 E9.75257
G1 X99.016 Y90.948 E10.94204
G1 X99.016 Y91.71 E10.9931
G1 X85.688 Y78.382 E12.25484
G1 X84.924 Y78.381 E12.30597
G1 X99.016 Y92.473 E13.63999
G1 X99.015 Y93.236 E13.69104
G1 X84.16 Y78.381 E15.09733
G1 X83.396 Y78.38 E15.14846
G1 X99.015 Y93.998 E16.62702
G1 X99.014 Y94.761 E16.67807
G1 X82.632 Y78.379 E18.2289
G1 X81.869 Y78.379 E18.28003
G1 X99.014 Y95.524 E19.90313
G1 X99.014 Y96.287 E19.95419
G1 X81.105 Y78.378 E21.64956
G1 X80.341 Y78.377 E21.70069
G1 X99.013 Y97.049 E23.46833
G1 X99.013 Y97.812 E23.51939
G1 X79.577 Y78.376 E25.3593
G1 X78.813 Y78.376 E25.41043
G1 X99.012 Y98.575 E27.32262
G1 X99.012 Y99.338 E27.37367
G1 X78.049 Y78.375 E29.35813
G1 X77.286 Y78.374 E29.40926
G1 X99.012 Y100.1 E31.46599
G1 X99.011 Y100.863 E31.51704
G1 X76.522 Y78.374 E33.64604
G1 X75.758 Y78.373 E33.69717
G1 X99.011 Y101.626 E35.89844
G1 X99.011 Y101.797 E35.90991
G1 X98.956 Y102.215 E35.93815
G1 X98.931 Y102.309 E35.94462
G1 X75.079 Y78.457 E38.20262
G1 X74.958 Y78.477 E38.21083
G1 X74.564 Y78.611 E38.23867
G1 X74.501 Y78.642 E38.24337
G1 X98.733 Y102.874 E40.53736
G1 X98.597 Y103.18 E40.55977
G1 X98.464 Y103.368 E40.57518
G1 X74.014 Y78.919 E42.88972
G1 X73.669 Y79.169 E42.91828
G1 X73.585 Y79.253 E42.9262
G1 X98.131 Y103.798 E45.24985
G1 X97.924 Y104.005 E45.2694
G1 X97.721 Y104.152 E45.28618
G1 X73.231 Y79.662 E47.60457
G1 X72.996 Y79.994 E47.63179
G1 X72.936 Y80.13 E47.64174
G1 X97.257 Y104.451 E49.94413
G1 X97.029 Y104.563 E49.96112
G1 X96.713 Y104.67 E49.98346
G1 X72.714 Y80.671 E52.25535
G1 X72.637 Y80.959 E52.27526
G1 X72.591 Y81.311 E52.29906
G1 X96.072 Y104.793 E54.52198
G1 X96.022 Y104.801 E54.52539
G1 X95.318 Y104.801 E54.57254
G1 X72.582 Y82.066 E56.72484
G1 X72.582 Y82.829 E56.77593
G1 X94.555 Y104.801 E58.85599
G1 X93.792 Y104.801 E58.90707
G1 X72.582 Y83.592 E60.91488
G1 X72.582 Y84.355 E60.96597
G1 X93.028 Y104.801 E62.90154
G1 X92.265 Y104.801 E62.95262
G1 X72.582 Y85.118 E64.81595
G1 X72.582 Y85.881 E64.86703
G1 X91.502 Y104.801 E66.65812
G1 X90.739 Y104.801 E66.7092
G1 X72.582 Y86.644 E68.42804
G1 X72.582 Y87.408 E68.47912
G1 X89.976 Y104.801 E70.12572
G1 X89.213 Y104.801 E70.1768
G1 X72.582 Y88.171 E71.75116
G1 X72.582 Y88.934 E71.80224
G1 X88.45 Y104.801 E73.30435
G1 X87.686 Y104.801 E73.35543
G1 X72.582 Y89.697 E74.7853
G1 X72.582 Y90.46 E74.83638
G1 X86.923 Y104.801 E76.194
G1 X86.16 Y104.801 E76.24509
G1 X72.582 Y91.223 E77.53046
G1 X72.582 Y91.986 E77.58155
G1 X85.397 Y104.801 E78.79468
G1 X84.634 Y104.801 E78.84577
G1 X72.582 Y92.75 E79.98666
G1 X72.582 Y93.513 E80.03774
G1 X83.871 Y104.801 E81.10639
G1 X83.108 Y104.801 E81.15747
G1 X72.582 Y94.276 E82.15387
G1 X72.582 Y95.039 E82.20496
G1 X82.345 Y104.801 E83.12911
G1 X81.581 Y104.801 E83.1802
G1 X72.582 Y95.802 E84.03211
G1 X72.582 Y96.565 E84.0832
G1 X80.818 Y104.801 E84.86287
G1 X80.055 Y104.801 E84.91395
G1 X72.582 Y97.328 E85.62138
G1 X72.582 Y98.091 E85.67246
G1 X79.292 Y104.801 E86.30765
G1 X78.529 Y104.801 E86.35873
G1 X72.582 Y98.855 E86.92167
G1 X72.582 Y99.618 E86.97275
G1 X77.766 Y104.801 E87.46345
G1 X77.003 Y104.801 E87.51453
G1 X72.582 Y100.381 E87.93299
G1 X72.582 Y101.144 E87.98407
G1 X76.239 Y104.801 E88.33028
G1 X75.586 Y104.801 E88.37404
G1 X75.46 Y104.785 E88.38255
G1 X72.602 Y101.927 E88.6531
G1 X72.687 Y102.426 E88.687
G1 X72.821 Y102.82 E88.71485
G1 X72.907 Y102.995 E88.72794
G1 X74.8 Y104.888 E88.9071
G92 E0
G1 E-0.4 F240
; stop printing object Bunnings-Shelf-Hook.stl id:0 copy 0
EXCLUDE_OBJECT_END NAME=Bunnings_Shelf_Hook_stl_id_0_copy_0
; printing object Bunnings-Shelf-Hook.stl id:2 copy 0
EXCLUDE_OBJECT_START NAME=Bunnings_Shelf_Hook_stl_id_2_copy_0
G1 X115.826 Y117.588 F7800
G1 E0 F240
;TYPE:Internal perimeter
;WIDTH:0.604
G1 F1800
G1 X116.016 Y117.13 E0.03336
G1 X116.106 Y116.961 E0.04624
G1 X116.394 Y116.53 E0.08113
G1 X116.515 Y116.382 E0.09402
G1 X116.866 Y116.031 E0.12738
G1 X117.259 Y115.73 E0.16074
G1 X117.422 Y115.629 E0.17362
