; generated by SuperSlicer 2.4 on 2023-10-02 at 09:01:13 UTC

; 

; external perimeters extrusion width = 0.42mm
; perimeters extrusion width = 0.46mm
; infill extrusion width = 0.44mm
; solid infill extrusion width = 0.46mm
; top infill extrusion width = 0.44mm
; first layer extrusion width = 0.60mm

; object:{"name":"codeandmake","id":"codeandmake.com_General_Purpose_Handle_Single_Point_v1.2_-_Large_Round_Very_Rounded_-_Front_Screws.stl id:0 copy 0","object_center":[109.395868,125.360114,0.000000],"boundingbox_center":[109.395868,125.360114,10.000000],"boundingbox_size":[20.000000,20.000000,20.000000]}
; plater:{"center":[109.395868,125.360114,0.000000],"boundingbox_center":[109.395868,125.360114,10.000000],"boundingbox_size":[20.000000,20.000000,20.000000]}

;TYPE:Custom
G28 ; home all axes
G1 Z5 F5000 ; lift nozzle
M107
G21 ; set units to millimeters
G90 ; use absolute coordinates
M82 ; use absolute distances for extrusion
G92 E0
; Filament gcode
;_TOOLCHANGE 0
M104 S200 ; set temperature
M109 S200 ; set temperature and wait for it to be reached
M190 S50 ; set bed temperature and wait for it to be reached
M107
;LAYER_CHANGE
;Z:0.3
;HEIGHT:0.3
TIMELAPSE_TAKE_FRAME
G1 Z0.3 F7800
G1 E-0.4 F240
G1 X98.421 Y112.956 F7800
G1 E0 F240
;TYPE:Skirt
;WIDTH:0.44
G1 F1800
G1 X97.408 Y113.928 E0.06576
G1 X96.291 Y115.232 E0.14622
G1 X95.478 Y116.376 E0.21198
G1 X94.625 Y117.867 E0.29244
G1 X94.041 Y119.144 E0.3582
G1 X93.483 Y120.768 E0.43866
G1 X93.148 Y122.131 E0.50442
G1 X92.904 Y123.831 E0.58488
G1 X92.831 Y125.233 E0.65064
G1 X92.909 Y126.948 E0.7311
G1 X93.1 Y128.339 E0.79686
G1 X93.519 Y130.086 E0.88101
G1 X94.207 Y131.965 E0.97479
G1 X94.981 Y133.52 E1.05616
G1 X95.681 Y134.645 E1.11824
G1 X96.899 Y136.234 E1.21201
G1 X97.759 Y137.15 E1.2709
G1 X99.268 Y138.465 E1.36467
G1 X100.412 Y139.278 E1.43043
G1 X101.903 Y140.131 E1.51089
G1 X103.179 Y140.715 E1.57665
G1 X104.803 Y141.273 E1.65711
G1 X106.167 Y141.608 E1.72287
G1 X107.945 Y141.862 E1.80702
G1 X109.946 Y141.914 E1.90079
G1 X111.267 Y141.818 E1.96287
G1 X112.98 Y141.53 E2.04424
G1 X114.636 Y141.075 E2.1247
G1 X115.947 Y140.572 E2.19046
G1 X117.488 Y139.815 E2.27092
G1 X118.681 Y139.075 E2.33669
G1 X120.269 Y137.857 E2.43046
G1 X121.186 Y136.997 E2.48935
G1 X122.501 Y135.488 E2.58312
G1 X123.314 Y134.344 E2.64888
G1 X124.167 Y132.853 E2.72934
G1 X124.751 Y131.577 E2.7951
G1 X125.309 Y129.953 E2.87556
G1 X125.644 Y128.589 E2.94132
G1 X125.898 Y126.811 E3.02547
G1 X125.949 Y124.732 E3.12293
G1 X125.75 Y122.74 E3.2167
G1 X125.472 Y121.364 E3.28247
G1 X124.945 Y119.647 E3.36662
G1 X124.14 Y117.815 E3.46039
G1 X123.491 Y116.659 E3.52246
G1 X122.872 Y115.727 E3.5749
G1 X121.75 Y114.324 E3.65905
G1 X120.327 Y112.917 E3.75282
G1 X119.298 Y112.082 E3.8149
G1 X118.38 Y111.442 E3.86733
G1 X116.889 Y110.589 E3.94779
G1 X115.612 Y110.005 E4.01355
G1 X113.988 Y109.447 E4.09401
G1 X112.625 Y109.112 E4.15977
G1 X110.847 Y108.858 E4.24392
G1 X108.767 Y108.807 E4.34138
G1 X107.945 Y108.858 E4.38
G1 X105.888 Y109.17 E4.47746
G1 X104.156 Y109.645 E4.56161
G1 X102.458 Y110.317 E4.64714
G1 X100.939 Y111.119 E4.7276
G1 X99.762 Y111.884 E4.79336
G1 X98.468 Y112.918 E4.87101
G1 X98.702 Y113.212 F7800
G1 F1800
G1 X98.66 Y113.245 E4.87354
G1 X97.673 Y114.193 E4.93764
G1 X96.58 Y115.471 E5.01644
G1 X95.788 Y116.588 E5.08055
G1 X94.954 Y118.048 E5.15935
G1 X94.386 Y119.293 E5.22345
G1 X93.84 Y120.884 E5.30225
G1 X93.515 Y122.213 E5.36636
G1 X93.277 Y123.878 E5.44516
G1 X93.206 Y125.244 E5.50926
G1 X93.284 Y126.925 E5.58807
G1 X93.471 Y128.28 E5.65217
G1 X93.882 Y129.992 E5.73466
G1 X94.556 Y131.827 E5.82623
G1 X95.305 Y133.329 E5.90484
G1 X95.985 Y134.425 E5.96526
G1 X97.172 Y135.977 E6.05682
G1 X98.033 Y136.893 E6.11571
G1 X99.507 Y138.176 E6.20728
G1 X100.623 Y138.968 E6.27138
G1 X102.084 Y139.802 E6.35018
G1 X103.328 Y140.37 E6.41429
G1 X104.919 Y140.916 E6.49309
G1 X106.249 Y141.241 E6.55719
G1 X107.992 Y141.489 E6.63969
G1 X109.946 Y141.538 E6.73125
G1 X111.232 Y141.444 E6.79167
G1 X112.887 Y141.167 E6.87028
G1 X114.509 Y140.722 E6.94908
G1 X115.787 Y140.232 E7.01319
G1 X117.297 Y139.492 E7.09199
G1 X118.46 Y138.771 E7.15609
G1 X120.012 Y137.584 E7.24766
G1 X120.929 Y136.723 E7.30655
G1 X122.212 Y135.249 E7.39811
G1 X123.003 Y134.133 E7.46221
G1 X123.838 Y132.672 E7.54102
G1 X124.406 Y131.428 E7.60512
G1 X124.952 Y129.837 E7.68392
G1 X125.277 Y128.507 E7.74803
G1 X125.525 Y126.764 E7.83052
G1 X125.574 Y124.732 E7.92577
G1 X125.377 Y122.787 E8.01734
G1 X125.106 Y121.446 E8.08144
G1 X124.588 Y119.763 E8.16393
G1 X123.8 Y117.974 E8.2555
G1 X123.167 Y116.851 E8.31591
G1 X122.562 Y115.938 E8.36724
G1 X121.461 Y114.564 E8.44974
G1 X120.07 Y113.191 E8.5413
G1 X119.068 Y112.379 E8.60172
G1 X118.168 Y111.753 E8.65305
G1 X116.708 Y110.918 E8.73185
G1 X115.463 Y110.35 E8.79596
G1 X113.872 Y109.804 E8.87476
G1 X112.543 Y109.479 E8.93886
G1 X110.8 Y109.231 E9.02136
G1 X108.767 Y109.182 E9.11661
G1 X107.992 Y109.231 E9.15301
G1 X105.981 Y109.534 E9.24827
G1 X104.283 Y109.999 E9.33076
G1 X102.607 Y110.662 E9.41519
G1 X101.12 Y111.448 E9.49399
G1 X99.973 Y112.194 E9.55809
G1 X98.749 Y113.174 E9.63156
G92 E0
G1 E-0.4 F240
G1 X102.962 Y118.253 F7800
G1 E0 F240
;WIDTH:0.604
G1 F1800
G1 X103.686 Y117.66 E0.06295
G1 X104.423 Y117.165 E0.12271
G1 X105.345 Y116.671 E0.19317
G1 X106.295 Y116.288 E0.26211
G1 X107.774 Y115.911 E0.36478
G1 X108.842 Y115.789 E0.43718
G1 X109.921 Y115.788 E0.50975
G1 X110.991 Y115.908 E0.58227
G1 X111.719 Y116.058 E0.63225
G1 X112.737 Y116.376 E0.70406
G1 X113.422 Y116.659 E0.75391
G1 X114.425 Y117.198 E0.83054
G1 X115.365 Y117.858 E0.90785
G1 X116.483 Y118.903 E1.01091
G1 X117.148 Y119.72 E1.0818
G1 X117.713 Y120.592 E1.15172
G1 X118.366 Y121.974 E1.2546
G1 X118.65 Y122.86 E1.31723
G1 X118.847 Y123.757 E1.37899
G1 X118.967 Y124.806 E1.45006
G1 X118.968 Y125.885 E1.52269
G1 X118.848 Y126.956 E1.59522
G1 X118.684 Y127.736 E1.64884
G1 X118.377 Y128.71 E1.71762
G1 X117.994 Y129.599 E1.78279
G1 X117.54 Y130.417 E1.84573
G1 X117.038 Y131.147 E1.90536
G1 X116.384 Y131.923 E1.97363
G1 X115.644 Y132.631 E2.04259
G1 X114.714 Y133.334 E2.12106
G1 X114.071 Y133.73 E2.17187
G1 X113.11 Y134.197 E2.24376
G1 X112.408 Y134.463 E2.29432
G1 X111.015 Y134.809 E2.39095
G1 X109.949 Y134.931 E2.46311
G1 X108.871 Y134.933 E2.53569
G1 X107.8 Y134.812 E2.60822
G1 X107.02 Y134.648 E2.66184
G1 X106.046 Y134.342 E2.73062
G1 X105.157 Y133.958 E2.79579
G1 X104.339 Y133.504 E2.85873
G1 X103.609 Y133.002 E2.91836
G1 X102.833 Y132.349 E2.98663
G1 X102.117 Y131.6 E3.05636
G1 X101.211 Y130.352 E3.16017
G1 X100.719 Y129.437 E3.23011
G1 X100.328 Y128.471 E3.30022
G1 X100.022 Y127.364 E3.37753
G1 X99.892 Y126.625 E3.428
G1 X99.813 Y125.561 E3.49984
G1 X99.823 Y124.821 E3.54964
G1 X99.945 Y123.761 E3.62142
G1 X100.094 Y123.037 E3.67121
G1 X100.412 Y122.019 E3.74301
G1 X100.717 Y121.286 E3.79642
G1 X101.197 Y120.394 E3.86462
G1 X101.634 Y119.732 E3.91799
G1 X102.278 Y118.939 E3.98676
G1 X102.92 Y118.296 E4.04789
G1 X103.301 Y118.676 F7800
G1 F1800
G1 X103.315 Y118.662 E4.04926
G1 X103.998 Y118.101 E4.10872
G1 X104.69 Y117.634 E4.1649
G1 X105.561 Y117.166 E4.23147
G1 X106.481 Y116.795 E4.2982
G1 X107.853 Y116.445 E4.39352
G1 X108.888 Y116.327 E4.46365
G1 X109.905 Y116.327 E4.5321
G1 X110.918 Y116.443 E4.60069
G1 X111.596 Y116.584 E4.64732
G1 X112.564 Y116.887 E4.71561
G1 X113.202 Y117.152 E4.7621
G1 X114.154 Y117.665 E4.83489
G1 X115.039 Y118.288 E4.9077
G1 X116.077 Y119.259 E5.00334
G1 X116.703 Y120.026 E5.07003
G1 X117.251 Y120.87 E5.13774
G1 X117.857 Y122.157 E5.23347
G1 X118.126 Y122.989 E5.29234
G1 X118.312 Y123.832 E5.35043
G1 X118.429 Y124.852 E5.41952
G1 X118.429 Y125.87 E5.48802
G1 X118.313 Y126.882 E5.55661
G1 X118.165 Y127.586 E5.60503
G1 X117.867 Y128.535 E5.67198
G1 X117.515 Y129.35 E5.7317
G1 X117.087 Y130.123 E5.79115
G1 X116.617 Y130.81 E5.84722
G1 X115.981 Y131.564 E5.91359
G1 X115.283 Y132.23 E5.97854
G1 X114.4 Y132.896 E6.05299
G1 X113.801 Y133.263 E6.10029
G1 X112.886 Y133.706 E6.16864
G1 X112.232 Y133.952 E6.2157
G1 X110.936 Y134.275 E6.3056
G1 X109.903 Y134.393 E6.37554
G1 X108.886 Y134.393 E6.444
G1 X107.874 Y134.277 E6.51259
G1 X107.17 Y134.13 E6.56101
G1 X106.221 Y133.831 E6.62796
G1 X105.406 Y133.479 E6.68768
G1 X104.633 Y133.052 E6.74713
G1 X103.946 Y132.581 E6.80319
G1 X103.192 Y131.945 E6.86957
G1 X102.52 Y131.241 E6.93512
G1 X101.677 Y130.081 E7.03161
G1 X101.201 Y129.194 E7.09933
G1 X100.834 Y128.284 E7.16541
G1 X100.546 Y127.233 E7.2387
G1 X100.426 Y126.546 E7.2857
G1 X100.352 Y125.533 E7.35402
G1 X100.363 Y124.843 E7.40047
G1 X100.479 Y123.835 E7.46875
G1 X100.62 Y123.16 E7.5152
G1 X100.923 Y122.192 E7.58347
G1 X101.199 Y121.53 E7.63172
G1 X101.667 Y120.66 E7.69821
G1 X102.062 Y120.062 E7.74645
G1 X102.689 Y119.29 E7.81339
G1 X103.259 Y118.719 E7.8677
G1 X103.64 Y119.099 F7800
G1 F1800
G1 X103.669 Y119.07 E7.87048
G1 X104.311 Y118.54 E7.92647
G1 X104.958 Y118.103 E7.97908
G1 X105.777 Y117.661 E8.04171
G1 X106.666 Y117.302 E8.10621
G1 X107.933 Y116.979 E8.19423
G1 X108.904 Y116.867 E8.26
G1 X109.89 Y116.867 E8.32635
G1 X110.843 Y116.978 E8.39098
G1 X111.473 Y117.109 E8.43424
G1 X112.391 Y117.398 E8.49902
G1 X112.982 Y117.645 E8.54216
G1 X113.883 Y118.132 E8.6111
G1 X114.712 Y118.718 E8.67943
G1 X115.67 Y119.614 E8.7677
G1 X116.276 Y120.356 E8.83216
G1 X116.788 Y121.148 E8.89564
G1 X117.349 Y122.34 E8.9843
G1 X117.602 Y123.119 E9.03943
G1 X117.778 Y123.908 E9.09386
G1 X117.889 Y124.867 E9.15886
G1 X117.889 Y125.854 E9.22525
G1 X117.778 Y126.808 E9.28988
G1 X117.647 Y127.437 E9.33314
G1 X117.356 Y128.36 E9.39826
G1 X117.036 Y129.1 E9.45256
G1 X116.635 Y129.829 E9.50855
G1 X116.195 Y130.473 E9.56105
G1 X115.598 Y131.184 E9.62351
G1 X114.922 Y131.828 E9.68639
G1 X114.086 Y132.457 E9.75678
G1 X113.531 Y132.796 E9.80056
G1 X112.663 Y133.214 E9.86539
G1 X112.057 Y133.442 E9.90896
G1 X110.857 Y133.741 E9.99223
G1 X109.888 Y133.853 E10.05785
G1 X108.902 Y133.853 E10.12421
G1 X107.948 Y133.742 E10.18883
G1 X107.319 Y133.611 E10.2321
G1 X106.396 Y133.32 E10.29722
G1 X105.656 Y133.001 E10.35152
G1 X104.927 Y132.599 E10.4075
G1 X104.283 Y132.159 E10.46
G1 X103.572 Y131.562 E10.52246
G1 X102.923 Y130.881 E10.5858
G1 X102.144 Y129.809 E10.67502
G1 X101.696 Y128.978 E10.73851
G1 X101.34 Y128.097 E10.80251
G1 X101.07 Y127.104 E10.87173
G1 X100.96 Y126.467 E10.91526
G1 X100.891 Y125.507 E10.98006
G1 X100.902 Y124.866 E11.02317
G1 X101.014 Y123.91 E11.08794
G1 X101.145 Y123.283 E11.13106
G1 X101.434 Y122.365 E11.19583
G1 X101.68 Y121.774 E11.23894
G1 X102.136 Y120.926 E11.30372
G1 X102.489 Y120.392 E11.34683
G1 X103.099 Y119.641 E11.41194
G1 X103.597 Y119.141 E11.45942
G1 X103.978 Y119.522 F7800
G1 F1800
G1 X104.023 Y119.477 E11.46365
G1 X104.624 Y118.98 E11.5162
G1 X105.227 Y118.571 E11.56519
G1 X106.02 Y118.143 E11.62588
G1 X106.85 Y117.809 E11.68609
G1 X108.014 Y117.513 E11.76691
G1 X108.92 Y117.406 E11.82834
G1 X109.843 Y117.405 E11.89044
G1 X110.769 Y117.512 E11.95316
G1 X111.348 Y117.635 E11.99303
G1 X112.216 Y117.909 E12.05431
G1 X112.762 Y118.137 E12.0941
G1 X113.585 Y118.582 E12.15708
G1 X114.386 Y119.148 E12.22308
G1 X115.264 Y119.97 E12.30403
G1 X115.831 Y120.661 E12.36421
G1 X116.325 Y121.426 E12.42545
G1 X116.841 Y122.522 E12.50704
G1 X117.085 Y123.273 E12.56016
G1 X117.243 Y123.985 E12.60925
G1 X117.35 Y124.884 E12.67019
G1 X117.351 Y125.807 E12.73232
G1 X117.244 Y126.733 E12.79505
G1 X117.121 Y127.313 E12.83491
G1 X116.846 Y128.184 E12.89643
G1 X116.557 Y128.852 E12.94538
G1 X116.181 Y129.536 E12.99793
G1 X115.773 Y130.136 E13.04682
G1 X115.194 Y130.825 E13.10734
G1 X114.562 Y131.426 E13.16609
G1 X113.773 Y132.017 E13.23242
G1 X113.261 Y132.328 E13.2727
G1 X112.44 Y132.722 E13.334
G1 X111.882 Y132.931 E13.3741
G1 X110.776 Y133.207 E13.45082
G1 X109.871 Y133.314 E13.51215
G1 X108.949 Y133.316 E13.57426
G1 X108.023 Y133.208 E13.63698
G1 X107.443 Y133.086 E13.67684
G1 X106.572 Y132.81 E13.73836
G1 X105.904 Y132.522 E13.78731
G1 X105.22 Y132.145 E13.83986
G1 X104.62 Y131.737 E13.88875
G1 X103.931 Y131.159 E13.94927
G1 X103.326 Y130.522 E14.00835
G1 X102.61 Y129.537 E14.09035
G1 X102.178 Y128.736 E14.1516
G1 X101.847 Y127.91 E14.21146
G1 X101.595 Y126.976 E14.27661
G1 X101.494 Y126.389 E14.31668
G1 X101.43 Y125.481 E14.37797
G1 X101.441 Y124.89 E14.41774
G1 X101.548 Y123.986 E14.47901
G1 X101.67 Y123.408 E14.51878
G1 X101.945 Y122.54 E14.58005
G1 X102.173 Y121.994 E14.61982
G1 X102.605 Y121.193 E14.6811
G1 X102.932 Y120.701 E14.72086
G1 X103.509 Y119.992 E14.78237
G1 X103.936 Y119.564 E14.82305
G1 X104.317 Y119.945 F7800
G1 F1800
G1 X104.376 Y119.885 E14.82875
G1 X104.958 Y119.404 E14.87958
G1 X105.496 Y119.039 E14.92328
G1 X106.235 Y118.638 E14.97993
G1 X107.035 Y118.317 E15.03789
G1 X108.095 Y118.047 E15.11151
G1 X108.968 Y117.944 E15.17067
G1 X109.827 Y117.944 E15.22851
G1 X110.693 Y118.047 E15.2872
G1 X111.223 Y118.16 E15.32368
G1 X112.041 Y118.42 E15.38146
G1 X112.54 Y118.63 E15.41789
G1 X113.314 Y119.049 E15.4771
G1 X114.059 Y119.578 E15.53859
G1 X114.858 Y120.325 E15.61228
G1 X115.404 Y120.991 E15.67021
G1 X115.861 Y121.703 E15.72714
G1 X116.333 Y122.705 E15.80171
G1 X116.568 Y123.427 E15.85282
G1 X116.709 Y124.062 E15.89657
G1 X116.812 Y124.932 E15.95551
G1 X116.812 Y125.791 E16.01338
G1 X116.709 Y126.657 E16.07206
G1 X116.596 Y127.187 E16.10854
G1 X116.336 Y128.008 E16.16648
G1 X116.078 Y128.603 E16.21012
G1 X115.715 Y129.265 E16.26095
G1 X115.35 Y129.8 E16.30456
G1 X114.812 Y130.445 E16.36107
G1 X114.202 Y131.024 E16.4177
G1 X113.46 Y131.577 E16.47991
G1 X112.993 Y131.86 E16.51669
G1 X112.218 Y132.23 E16.57449
G1 X111.708 Y132.42 E16.61111
G1 X110.696 Y132.674 E16.68135
G1 X109.824 Y132.776 E16.74044
G1 X108.965 Y132.776 E16.79829
G1 X108.099 Y132.673 E16.85697
G1 X107.569 Y132.561 E16.89345
G1 X106.748 Y132.3 E16.95138
G1 X106.153 Y132.043 E16.99503
G1 X105.491 Y131.679 E17.04586
G1 X104.955 Y131.314 E17.08947
G1 X104.311 Y130.776 E17.14597
G1 X103.73 Y130.163 E17.20282
G1 X103.076 Y129.264 E17.27766
G1 X102.673 Y128.52 E17.33459
G1 X102.354 Y127.724 E17.39231
G1 X102.119 Y126.848 E17.45334
G1 X102.028 Y126.312 E17.48995
G1 X101.969 Y125.455 E17.54774
G1 X101.98 Y124.914 E17.58416
G1 X102.083 Y124.062 E17.64194
G1 X102.195 Y123.533 E17.67836
G1 X102.455 Y122.715 E17.73614
G1 X102.665 Y122.216 E17.77255
G1 X103.074 Y121.461 E17.83034
G1 X103.374 Y121.011 E17.86675
G1 X103.918 Y120.344 E17.92469
G1 X104.274 Y119.987 E17.9586
G1 X104.655 Y120.368 F7800
G1 F1800
G1 X104.73 Y120.293 E17.96576
G1 X105.292 Y119.828 E18.01487
G1 X105.765 Y119.507 E18.05329
G1 X106.479 Y119.12 E18.10797
G1 X107.218 Y118.824 E18.16155
G1 X108.176 Y118.581 E18.22809
G1 X108.984 Y118.484 E18.28282
G1 X109.811 Y118.484 E18.33849
G1 X110.616 Y118.581 E18.39308
G1 X111.097 Y118.684 E18.42617
G1 X111.865 Y118.93 E18.48048
G1 X112.318 Y119.121 E18.51353
G1 X113.041 Y119.515 E18.56898
G1 X113.731 Y120.007 E18.62596
G1 X114.453 Y120.682 E18.6925
G1 X114.958 Y121.297 E18.74607
G1 X115.398 Y121.98 E18.80074
G1 X115.825 Y122.888 E18.86829
G1 X116.051 Y123.582 E18.9174
G1 X116.175 Y124.14 E18.95588
G1 X116.272 Y124.948 E19.01064
G1 X116.272 Y125.775 E19.06633
G1 X116.175 Y126.58 E19.12092
G1 X116.072 Y127.061 E19.15401
G1 X115.826 Y127.831 E19.2084
G1 X115.599 Y128.354 E19.24678
G1 X115.248 Y128.994 E19.29589
G1 X114.928 Y129.465 E19.33423
G1 X114.408 Y130.086 E19.38877
G1 X113.842 Y130.621 E19.44115
G1 X113.149 Y131.136 E19.49925
G1 X112.726 Y131.391 E19.53252
G1 X111.997 Y131.738 E19.58683
G1 X111.535 Y131.909 E19.62
G1 X110.615 Y132.14 E19.68386
G1 X109.808 Y132.237 E19.73855
G1 X108.981 Y132.236 E19.79422
G1 X108.176 Y132.139 E19.84881
G1 X107.695 Y132.036 E19.8819
G1 X106.925 Y131.79 E19.93628
G1 X106.402 Y131.564 E19.97467
G1 X105.762 Y131.212 E20.02378
G1 X105.291 Y130.892 E20.06211
G1 X104.67 Y130.372 E20.11666
G1 X104.134 Y129.805 E20.16915
G1 X103.542 Y128.991 E20.23689
G1 X103.155 Y128.277 E20.29155
G1 X102.861 Y127.539 E20.345
G1 X102.644 Y126.722 E20.40191
G1 X102.563 Y126.236 E20.43507
G1 X102.508 Y125.431 E20.48938
G1 X102.52 Y124.94 E20.52243
G1 X102.617 Y124.139 E20.57673
