; generated by SuperSlicer 2.4 on 2023-10-06 at 08:12:53 UTC

; 

; external perimeters extrusion width = 0.42mm
; perimeters extrusion width = 0.46mm
; infill extrusion width = 0.44mm
; solid infill extrusion width = 0.46mm
; top infill extrusion width = 0.44mm
; first layer extrusion width = 0.60mm

; object:{"name":"p2","id":"p2.stl id:0 copy 0","object_center":[119.958828,116.393052,0.000000],"boundingbox_center":[119.958828,116.393052,5.035302],"boundingbox_size":[152.955817,216.624646,10.070604]}
; plater:{"center":[119.958828,116.393052,0.000000],"boundingbox_center":[119.958828,116.393052,5.035302],"boundingbox_size":[152.955817,216.624646,10.070604]}

;TYPE:Custom
G28 ; home all axes
G1 Z5 F5000 ; lift nozzle
M107
G21 ; set units to millimeters
G90 ; use absolute coordinates
M82 ; use absolute distances for extrusion
G92 E0
; Filament gcode
;_TOOLCHANGE 0
M104 S200 ; set temperature
M109 S200 ; set temperature and wait for it to be reached
M190 S50 ; set bed temperature and wait for it to be reached
M107
;LAYER_CHANGE
;Z:0.3
;HEIGHT:0.3
TIMELAPSE_TAKE_FRAME
G1 Z0.3 F7800
G1 E-0.4 F240
G1 X84.717 Y45.422 F7800
G1 E0 F240
;TYPE:Skirt
;WIDTH:0.44
G1 F1800
G1 X55.023 Y100.804 E2.94403
G1 X54.475 Y101.958 E3.00385
G1 X53.924 Y103.475 E3.07949
G1 X47.884 Y126.405 E4.19035
G1 X47.177 Y129.266 E4.32842
G1 X46.742 Y131.494 E4.43481
G1 X41.499 Y169.428 E6.22886
G1 X41.137 Y173.58 E6.42411
G1 X41.076 Y177.506 E6.60809
G1 X41.664 Y222.206 E8.70241
G1 X42.218 Y224.759 E8.8248
G1 X43.251 Y226.435 E8.91705
G1 X45.007 Y227.894 E9.02399
G1 X47.156 Y228.664 E9.13094
G1 X48.327 Y228.77 E9.18605
G1 X191.733 Y228.966 E15.90453
G1 X193.118 Y228.78 E15.96996
G1 X195.207 Y227.861 E16.0769
G1 X196.856 Y226.282 E16.18385
G1 X197.863 Y224.234 E16.29079
G1 X198.139 Y222.631 E16.36697
G1 X198.215 Y220.936 E16.44645
G1 X198.973 Y177.011 E18.50462
G1 X198.911 Y173.874 E18.65164
G1 X198.7 Y170.934 E18.78972
G1 X193.544 Y133.025 E20.5821
G1 X193.201 Y130.939 E20.68112
G1 X192.482 Y127.65 E20.83883
G1 X186.23 Y103.887 E21.99
G1 X185.879 Y102.75 E22.04577
G1 X185.59 Y101.997 E22.08356
G1 X153.603 Y31.927 E25.69214
G1 X152.46 Y29.635 E25.81215
G1 X151.41 Y27.778 E25.9121
G1 X150.354 Y26.103 E26.00484
G1 X148.079 Y22.903 E26.1888
G1 X145.769 Y20.086 E26.35946
G1 X143.196 Y17.227 E26.53965
G1 X140.594 Y14.579 E26.7136
G1 X138.664 Y12.824 E26.83579
G1 X137.439 Y11.826 E26.90983
G1 X135.763 Y10.607 E27.00694
G1 X133.06 Y8.803 E27.15917
G1 X130.826 Y7.502 E27.2803
G1 X128.958 Y6.584 E27.37777
G1 X126.818 Y5.711 E27.48608
G1 X124.879 Y5.085 E27.58152
G1 X122.123 Y4.5 E27.71353
G1 X120.919 Y4.379 E27.77024
G1 X119.46 Y4.418 E27.83862
G1 X118.468 Y4.534 E27.88541
G1 X115.855 Y5.077 E28.01042
G1 X113.973 Y5.685 E28.10309
G1 X112.775 Y6.175 E28.16372
G1 X111.105 Y7.01 E28.25119
G1 X109.044 Y8.326 E28.36574
G1 X107.875 Y9.228 E28.43491
G1 X106.4 Y10.587 E28.52887
G1 X104.902 Y12.308 E28.63578
G1 X103.532 Y14.2 E28.74523
G1 X89 Y37.643 E30.03742
G1 X87.588 Y40.067 E30.16882
G1 X84.745 Y45.369 E30.4507
G1 X85.076 Y45.547 F7800
G1 F1800
G1 X55.354 Y100.982 E33.39754
G1 X54.816 Y102.116 E33.45635
G1 X54.28 Y103.595 E33.53003
G1 X48.247 Y126.5 E34.63972
G1 X47.544 Y129.344 E34.77697
G1 X47.111 Y131.564 E34.88292
G1 X41.872 Y169.478 E36.67606
G1 X41.511 Y173.609 E36.87032
G1 X41.451 Y177.501 E37.05271
G1 X42.04 Y222.201 E39.14703
G1 X42.562 Y224.608 E39.26241
G1 X43.455 Y226.093 E39.34359
G1 X45.137 Y227.535 E39.4474
G1 X47.219 Y228.293 E39.55122
G1 X48.328 Y228.395 E39.60338
G1 X191.718 Y228.59 E46.32115
G1 X194.89 Y227.62 E46.47652
G1 X196.514 Y226.112 E46.58034
G1 X197.503 Y224.129 E46.68415
G1 X197.764 Y222.614 E46.75619
G1 X197.839 Y220.93 E46.83515
G1 X198.597 Y177.005 E48.89332
G1 X198.535 Y173.886 E49.03947
G1 X198.326 Y170.966 E49.17662
G1 X193.172 Y133.076 E50.9681
G1 X192.832 Y131.013 E51.06605
G1 X192.118 Y127.745 E51.22275
G1 X185.867 Y103.983 E52.37387
G1 X185.521 Y102.863 E52.4288
G1 X185.248 Y102.153 E52.46443
G1 X153.261 Y32.083 E56.07301
G1 X152.132 Y29.819 E56.19157
G1 X151.091 Y27.978 E56.29064
G1 X150.043 Y26.314 E56.38276
G1 X147.788 Y23.141 E56.56515
G1 X145.49 Y20.337 E56.73497
G1 X142.917 Y17.478 E56.91516
G1 X140.338 Y14.854 E57.08755
G1 X138.415 Y13.105 E57.20932
G1 X137.218 Y12.129 E57.2817
G1 X135.552 Y10.918 E57.37818
G1 X132.855 Y9.117 E57.53008
G1 X130.658 Y7.838 E57.64922
G1 X128.813 Y6.931 E57.74554
G1 X126.703 Y6.068 E57.85234
G1 X124.764 Y5.442 E57.94778
G1 X122.051 Y4.869 E58.07768
G1 X120.916 Y4.755 E58.13115
G1 X119.503 Y4.791 E58.19735
G1 X118.511 Y4.907 E58.24414
G1 X115.966 Y5.436 E58.36594
G1 X114.115 Y6.032 E58.45702
G1 X112.918 Y6.523 E58.51766
G1 X111.277 Y7.344 E58.60358
G1 X109.667 Y8.347 E58.69246
G1 X108.608 Y9.13 E58.75417
G1 X107.688 Y9.886 E58.80996
G1 X106.658 Y10.86 E58.87635
G1 X105.19 Y12.549 E58.98122
G1 X103.838 Y14.418 E59.08928
G1 X89.32 Y37.841 E60.38033
G1 X87.918 Y40.246 E60.51077
G1 X85.104 Y45.494 E60.78972
G92 E0
G1 E-0.4 F240
; printing object p2.stl id:0 copy 0
G1 X91.783 Y47.502 F7800
G1 E0 F240
;TYPE:External perimeter
;WIDTH:0.604
G1 F1800
G1 X91.883 Y47.168 E0.02348
G1 X92.029 Y46.729 E0.05462
G1 X92.552 Y45.409 E0.15017
G1 X93.037 Y44.415 E0.22459
G1 X93.614 Y43.356 E0.30581
G1 X94.842 Y41.25 E0.46984
G1 X95.636 Y39.979 E0.57075
G1 X97.98 Y36.412 E0.85802
G1 X100.949 Y32.086 E1.21111
G1 X102.658 Y29.42 E1.42428
G1 X103.073 Y28.815 E1.47364
G1 X104.637 Y26.021 E1.68915
G1 X106.521 Y22.553 E1.95479
G1 X107.415 Y20.977 E2.07674
G1 X108.305 Y19.468 E2.19463
G1 X109.132 Y18.171 E2.29813
G1 X110.173 Y16.706 E2.41915
G1 X111.131 Y15.562 E2.51954
G1 X112.138 Y14.61 E2.61282
G1 X112.539 Y14.293 E2.64725
G1 X113.192 Y13.797 E2.70241
G1 X114.27 Y13.102 E2.7887
G1 X115.39 Y12.523 E2.87361
G1 X116.563 Y12.043 E2.9589
G1 X117.864 Y11.642 E3.05054
G1 X119.277 Y11.352 E3.14762
G1 X120.237 Y11.24 E3.2127
G1 X120.838 Y11.244 E3.25313
G1 X122.787 Y11.624 E3.38676
G1 X124.696 Y12.24 E3.52178
G1 X126.289 Y12.91 E3.63807
G1 X127.745 Y13.638 E3.74768
G1 X129.323 Y14.562 E3.87074
G1 X130.208 Y15.137 E3.94175
G1 X131.911 Y16.289 E4.08013
G1 X133.382 Y17.364 E4.20278
G1 X134.113 Y17.964 E4.26639
G1 X134.987 Y18.739 E4.34502
G1 X135.913 Y19.601 E4.43019
G1 X137.15 Y20.832 E4.54763
G1 X138.096 Y21.823 E4.63983
G1 X140.661 Y24.673 E4.89791
G1 X142.756 Y27.239 E5.12084
G1 X143.726 Y28.562 E5.23126
G1 X144.669 Y29.952 E5.34435
G1 X145.586 Y31.414 E5.46045
G1 X145.803 Y31.848 E5.49311
G1 X146.47 Y32.99 E5.58214
G1 X146.889 Y33.793 E5.64311
G1 X147.353 Y34.77 E5.71593
G1 X147.962 Y36.422 E5.83437
G1 X148.382 Y37.795 E5.93105
G1 X148.651 Y38.948 E6.01072
G1 X148.814 Y39.853 E6.07264
G1 X148.912 Y40.54 E6.11929
G1 X149.078 Y42.224 E6.2332
G1 X149.119 Y43.296 E6.30539
G1 X149.245 Y45.431 E6.44935
G1 X149.327 Y46.172 E6.49954
G1 X149.519 Y47.316 E6.57762
G1 X149.801 Y48.324 E6.64801
G1 X150.201 Y49.233 E6.71488
G1 X150.69 Y50.046 E6.77873
G1 X151.263 Y50.83 E6.84411
G1 X152.69 Y52.614 E6.99789
G1 X153.164 Y53.237 E7.05055
G1 X153.481 Y53.691 E7.08781
G1 X154.195 Y54.81 E7.17715
G1 X154.773 Y55.948 E7.26304
G1 X155.124 Y56.966 E7.33551
G1 X155.322 Y57.609 E7.38078
G1 X155.699 Y59.006 E7.47819
G1 X156.292 Y61.621 E7.65868
G1 X156.939 Y65.121 E7.89823
G1 X157.458 Y68.275 E8.11338
G1 X157.718 Y69.702 E8.21095
G1 X157.994 Y71.023 E8.30181
G1 X158.299 Y72.172 E8.38183
G1 X158.474 Y72.723 E8.42074
G1 X158.726 Y73.368 E8.46735
G1 X159.005 Y73.942 E8.51025
G1 X159.686 Y75.03 E8.59666
G1 X159.958 Y75.409 E8.62808
G1 X160.657 Y76.271 E8.70278
G1 X161.43 Y77.182 E8.78319
G1 X163.264 Y79.266 E8.97003
G1 X163.982 Y80.144 E9.04639
G1 X164.656 Y81.027 E9.1211
G1 X165.262 Y81.894 E9.19233
G1 X165.896 Y82.856 E9.26986
G1 X167.062 Y84.724 E9.41808
G1 X168.032 Y86.042 E9.5282
G1 X168.595 Y86.723 E9.58768
G1 X168.854 Y87.153 E9.6215
G1 X169.051 Y87.547 E9.65111
G1 X169.32 Y88.324 E9.70643
G1 X169.412 Y88.646 E9.72899
G1 X170.937 Y91.906 E9.97124
G1 X171.989 Y94.043 E10.13154
G1 X172.999 Y95.95 E10.27676
G1 X173.853 Y97.376 E10.38867
G1 X174.146 Y97.812 E10.42403
G1 X175.151 Y98.997 E10.52859
G1 X175.568 Y99.525 E10.57383
G1 X176.842 Y101.054 E10.70781
G1 X177.24 Y101.544 E10.75029
G1 X177.898 Y102.414 E10.82374
G1 X178.473 Y103.239 E10.89142
G1 X178.962 Y104.049 E10.95505
G1 X179.338 Y104.834 E11.01363
G1 X179.583 Y105.613 E11.06862
G1 X179.607 Y106.033 E11.09692
G1 X179.591 Y106.313 E11.11583
G1 X179.413 Y107.108 E11.17066
G1 X178.889 Y108.496 E11.2705
G1 X178.734 Y109.029 E11.30789
G1 X178.648 Y109.623 E11.34828
G1 X178.683 Y110.29 E11.39319
G1 X178.889 Y111.041 E11.4456
G1 X179.237 Y111.875 E11.50646
G1 X179.455 Y112.337 E11.54084
G1 X180.674 Y114.697 E11.71965
G1 X181.168 Y115.71 E11.79548
G1 X181.512 Y116.446 E11.85017
G1 X182.211 Y118.151 E11.97417
G1 X182.764 Y119.779 E12.08989
G1 X183.065 Y120.748 E12.15816
G1 X184.213 Y124.03 E12.39219
G1 X184.738 Y125.588 E12.50282
G1 X185.193 Y127.042 E12.60541
G1 X185.518 Y128.153 E12.68331
G1 X185.836 Y129.376 E12.76835
G1 X186.208 Y130.982 E12.87929
G1 X186.467 Y132.277 E12.96819
G1 X186.742 Y133.957 E13.08279
G1 X186.807 Y134.511 E13.12027
G1 X186.95 Y136.088 E13.22685
G1 X186.989 Y137.021 E13.28975
G1 X186.959 Y138.266 E13.37354
G1 X186.859 Y139.532 E13.45904
G1 X186.803 Y140.006 E13.49115
G1 X186.574 Y141.214 E13.57392
G1 X186.529 Y141.642 E13.60286
G1 X186.517 Y142.147 E13.63687
G1 X186.537 Y142.648 E13.6706
G1 X186.669 Y144.197 E13.77524
G1 X187.859 Y152.273 E14.32466
G1 X188.211 Y154.178 E14.45501
G1 X188.578 Y155.732 E14.56252
G1 X189.159 Y157.938 E14.71606
G1 X189.873 Y160.823 E14.91608
G1 X190.312 Y162.688 E15.04501
G1 X190.933 Y165.597 E15.24524
G1 X191.176 Y166.818 E15.32903
G1 X191.508 Y168.748 E15.46082
G1 X191.726 Y170.338 E15.56884
G1 X191.86 Y171.524 E15.64919
G1 X191.968 Y172.778 E15.73389
G1 X192.049 Y174.099 E15.82296
G1 X192.093 Y175.482 E15.9161
G1 X192.108 Y176.894 E16.01113
G1 X192.028 Y179.03 E16.15498
G1 X191.959 Y179.736 E16.20276
G1 X191.85 Y180.378 E16.24656
G1 X191.712 Y180.886 E16.28201
G1 X191.536 Y181.325 E16.3138
G1 X191.313 Y181.726 E16.3447
G1 X191.032 Y182.091 E16.37575
G1 X190.715 Y182.423 E16.40662
G1 X190.358 Y182.71 E16.43741
G1 X189.982 Y182.96 E16.46786
G1 X188.528 Y183.738 E16.57881
G1 X187.857 Y184.19 E16.63323
G1 X186.928 Y185.1 E16.72077
G1 X186.842 Y185.298 E16.73534
G1 X186.808 Y185.465 E16.74677
G1 X186.773 Y185.932 E16.77827
G1 X186.608 Y186.936 E16.84681
G1 X186.598 Y188.073 E16.92331
G1 X186.675 Y189.149 E16.99589
G1 X186.941 Y191.331 E17.14385
G1 X187.336 Y194.242 E17.3416
G1 X187.574 Y196.437 E17.49014
G1 X187.733 Y198.116 E17.6037
G1 X188.192 Y203.708 E17.98129
G1 X188.355 Y206.34 E18.15877
G1 X188.401 Y207.465 E18.23461
G1 X188.483 Y211.255 E18.48973
G1 X188.557 Y212.363 E18.56448
G1 X188.617 Y212.945 E18.60385
G1 X188.791 Y214.056 E18.67952
G1 X188.957 Y214.854 E18.73435
G1 X189.322 Y216.112 E18.82255
G1 X189.795 Y217.38 E18.91364
G1 X191.009 Y219.989 E19.10729
G1 X191.259 Y220.578 E19.15039
G1 X191.342 Y220.843 E19.16908
G1 X191.296 Y221.101 E19.18672
G1 X191.182 Y221.342 E19.20467
G1 X191.149 Y221.749 E19.23211
G1 X191.177 Y221.882 E19.24126
G1 X190.859 Y221.658 E19.26747
G1 X190.648 Y221.455 E19.28716
G1 X190.491 Y221.26 E19.304
G1 X190.277 Y220.936 E19.33013
G1 X189.766 Y220.012 E19.40119
G1 X189.093 Y218.701 E19.50037
G1 X188.546 Y217.504 E19.58896
G1 X188.205 Y216.642 E19.65137
G1 X187.879 Y215.713 E19.7176
G1 X187.749 Y215.26 E19.74935
G1 X187.46 Y214.078 E19.83123
G1 X187.253 Y212.785 E19.91936
G1 X187.134 Y211.44 E20.01025
G1 X186.976 Y206.764 E20.32515
G1 X186.85 Y204.534 E20.47547
G1 X186.28 Y196.941 E20.98794
G1 X185.961 Y192.344 E21.2981
G1 X185.856 Y190.739 E21.40633
G1 X185.787 Y188.716 E21.54257
G1 X185.791 Y187.543 E21.62153
G1 X185.885 Y186.353 E21.70185
G1 X186.126 Y185.236 E21.77875
G1 X186.19 Y184.746 E21.81207
G1 X186.23 Y184.617 E21.82116
G1 X187.072 Y183.734 E21.90326
G1 X187.684 Y183.301 E21.9537
G1 X189.08 Y182.517 E22.06146
G1 X189.84 Y181.988 E22.12377
G1 X190.182 Y181.65 E22.15613
G1 X190.465 Y181.281 E22.18747
G1 X190.681 Y180.871 E22.21865
G1 X190.841 Y180.425 E22.25053
G1 X190.947 Y179.95 E22.28325
G1 X191.011 Y179.372 E22.3224
G1 X191.016 Y177.478 E22.44989
G1 X190.941 Y175.617 E22.57527
G1 X190.871 Y174.612 E22.64307
G1 X190.745 Y173.176 E22.74008
G1 X190.473 Y170.606 E22.91402
G1 X189.918 Y166.932 E23.16407
G1 X189.439 Y164.166 E23.35305
G1 X188.987 Y161.756 E23.51805
G1 X188.511 Y159.439 E23.67728
G1 X187.323 Y154.455 E24.02212
G1 X187.1 Y153.331 E24.09922
G1 X186.861 Y151.856 E24.19981
G1 X186.265 Y147.507 E24.49527
G1 X185.668 Y143.627 E24.75945
G1 X185.568 Y142.592 E24.82946
G1 X185.548 Y141.613 E24.89537
G1 X185.594 Y141.188 E24.92413
G1 X185.674 Y140.698 E24.9575
G1 X185.774 Y140.267 E24.98731
G1 X185.921 Y139.379 E25.0479
G1 X185.986 Y138.212 E25.12654
G1 X185.984 Y137.468 E25.17667
G1 X185.908 Y136.095 E25.2692
G1 X185.667 Y134.073 E25.40625
G1 X185.352 Y131.967 E25.54955
G1 X185.031 Y130.335 E25.66151
G1 X184.882 Y129.659 E25.70812
G1 X184.49 Y128.096 E25.81657
G1 X184.281 Y127.361 E25.86796
G1 X183.724 Y125.642 E25.98962
G1 X183.204 Y124.153 E26.09578
G1 X182.069 Y121.111 E26.31428
G1 X181.273 Y118.846 E26.47588
G1 X180.476 Y116.914 E26.61655
G1 X179.7 Y115.168 E26.74511
G1 X178.59 Y112.785 E26.92202
G1 X178.162 Y111.779 E26.99562
G1 X177.87 Y110.961 E27.05408
G1 X177.721 Y110.273 E27.10145
G1 X177.721 Y109.681 E27.14134
G1 X177.8 Y109.154 E27.1772
G1 X177.953 Y108.678 E27.21086
G1 X178.636 Y107.137 E27.32428
G1 X178.82 Y106.481 E27.37013
G1 X178.875 Y105.928 E27.40758
G1 X178.872 Y105.61 E27.42893
G1 X178.584 Y104.766 E27.48899
G1 X178.163 Y104.028 E27.54614
G1 X177.66 Y103.286 E27.60651
G1 X177.054 Y102.532 E27.67163
G1 X176.367 Y101.753 E27.7415
G1 X174.678 Y99.953 E27.90765
G1 X174.008 Y99.189 E27.97605
G1 X173.273 Y98.444 E28.04644
G1 X173.084 Y98.198 E28.06736
G1 X172.181 Y96.801 E28.17929
G1 X171.551 Y95.68 E28.26586
G1 X171.033 Y94.689 E28.34108
G1 X170.156 Y92.895 E28.47552
G1 X168.677 Y89.762 E28.70867
G1 X168.361 Y88.917 E28.76938
G1 X167.971 Y88.221 E28.82306
G1 X167.603 Y87.709 E28.86549
G1 X166.885 Y86.865 E28.94008
G1 X166.138 Y85.848 E29.02506
G1 X164.637 Y83.417 E29.21734
G1 X163.453 Y81.672 E29.35924
G1 X162.77 Y80.771 E29.43535
G1 X162.016 Y79.843 E29.51583
G1 X159.829 Y77.316 E29.74079
G1 X158.81 Y76.043 E29.85047
G1 X158.116 Y75.035 E29.93289
G1 X157.557 Y73.963 E30.01424
G1 X157.31 Y73.34 E30.05938
G1 X157.124 Y72.78 E30.0991
G1 X156.825 Y71.637 E30.1786
G1 X156.57 Y70.33 E30.2682
G1 X155.718 Y65.084 E30.62591
G1 X155.293 Y62.701 E30.78884
G1 X154.781 Y60.265 E30.95635
G1 X154.162 Y57.963 E31.11679
G1 X153.737 Y56.719 E31.20529
G1 X153.235 Y55.627 E31.28621
G1 X153.057 Y55.304 E31.311
G1 X152.58 Y54.495 E31.37419
G1 X151.938 Y53.476 E31.45527
G1 X150.439 Y51.438 E31.62551
G1 X149.851 Y50.567 E31.69625
G1 X149.348 Y49.689 E31.7644
G1 X148.947 Y48.776 E31.83151
G1 X148.626 Y47.732 E31.90499
G1 X148.373 Y46.507 E31.98922
G1 X148.205 Y45.201 E32.07782
G1 X148.055 Y43.581 E32.18732
G1 X147.854 Y41.805 E32.30758
G1 X147.717 Y40.898 E32.36933
G1 X147.558 Y40.096 E32.42436
G1 X147.181 Y38.523 E32.53322
G1 X146.991 Y37.838 E32.5811
G1 X146.537 Y36.386 E32.6835
G1 X145.861 Y34.638 E32.80961
G1 X145.278 Y33.475 E32.89716
G1 X144.827 Y32.728 E32.95591
G1 X144.36 Y31.825 E33.02432
G1 X143.435 Y30.363 E33.14079
G1 X142.508 Y29.014 E33.25089
G1 X141.54 Y27.733 E33.35897
G1 X140.553 Y26.514 E33.46454
G1 X139.542 Y25.332 E33.56926
G1 X137.347 Y22.952 E33.78717
G1 X136.483 Y22.052 E33.87115
G1 X134.99 Y20.58 E34.01221
G1 X134.046 Y19.705 E34.09882
G1 X132.968 Y18.781 E34.19445
G1 X131.836 Y17.889 E34.29139
G1 X130.352 Y16.812 E34.41484
G1 X128.748 Y15.707 E34.54596
G1 X127.212 Y14.741 E34.66807
G1 X126.137 Y14.161 E34.7503
G1 X124.73 Y13.508 E34.85466
G1 X123.987 Y13.224 E34.9082
G1 X122.997 Y12.883 E34.97869
G1 X120.957 Y12.439 E35.11916
G1 X120.55 Y12.429 E35.1466
G1 X119.308 Y12.577 E35.23079
G1 X117.915 Y12.888 E35.32682
G1 X116.754 Y13.274 E35.4092
G1 X116.09 Y13.561 E35.45784
G1 X115.694 Y13.741 E35.48715
G1 X114.692 Y14.301 E35.56439
